X: 27351
T: Mister O'Rourke's
R: reel
M: 4/4
K: Dmajor
EFFE|:D~A,3 DEFD|E~B,3 EFG2|F/E/D FA dAFD|~E3D EDB,A,|
D~A,3 DEFD|E~B,3 EFG2|F/E/D FA dAFD|1 GECE D2FE:|2 GECE D4||
|:B3c BAFA|Bcde feaf|eA c/B/A EA c/B/A|eA c/B/A BAFA|
B2 c/B/A BAFE|D~G3 GA B2|cdef gedB|1 Addc d3c:|2 Addc d4||

